libs/ui/packages/crypto-icons/src/svg/RBTC.svg

<svg width="24" height="24" stroke-miterlimit="10" version="1.1" viewBox="0 0 24 24" xml:space="preserve" xmlns="http://www.w3.org/2000/svg" xmlns:xlink="http://www.w3.org/1999/xlink">
<path d="M9.61352 5.70371C9.61352 4.3857 10.682 3.31723 12 3.31723C13.318 3.31723 14.3865 4.3857 14.3865 5.70371C14.3865 7.02173 13.318 8.09019 12 8.09019C10.682 8.09019 9.61352 7.02173 9.61352 5.70371Z" fill="#000000" fill-rule="nonzero" opacity="1" stroke="none"/>
<path d="M18.6396 13.0811C17.4975 12.4227 16.0384 12.8148 15.3801 13.9569C15.1534 14.3499 15.0516 14.7802 15.0613 15.2026L15.0613 15.2026C15.0852 16.2544 14.1393 16.8018 13.2401 16.2586C13.2046 16.2369 13.1682 16.2157 13.1313 16.1959C12.2219 15.6883 12.2223 14.607 13.1323 14.0997C13.8773 13.6961 14.3836 12.9069 14.3836 12.0002C14.3836 11.9818 14.3826 11.9638 14.3822 11.9459L14.3831 11.9472C14.3596 10.8941 15.3077 10.3472 16.208 10.8945L16.208 10.8945C16.929 11.3322 17.8605 11.3732 18.6423 10.9213C19.7835 10.262 20.1742 8.80198 19.515 7.66081C18.8557 6.51963 17.3957 6.12895 16.2545 6.78822C15.4731 7.23972 15.0442 8.06577 15.0622 8.90841L15.0622 8.90841C15.0857 9.95929 14.1408 10.5061 13.2424 9.9639C12.8798 9.74184 12.4541 9.61376 11.998 9.61376C11.5419 9.61376 11.1162 9.74184 10.7541 9.96344C9.85753 10.5038 8.91538 9.95791 8.93934 8.90933L8.93934 8.90933C8.95776 8.06485 8.52654 7.23696 7.74287 6.78592C6.60031 6.12895 5.14125 6.52239 4.48427 7.66495C3.8273 8.80751 4.22075 10.2666 5.36331 10.9236C6.14421 11.3727 7.073 11.3308 7.79263 10.8945L7.79263 10.8945C8.69055 10.3495 9.63639 10.8959 9.61244 11.9463L9.61335 11.9449C9.61335 11.9634 9.61198 11.9818 9.61198 12.0007C9.61198 12.9078 10.1178 13.6966 10.8633 14.1001C11.7736 14.6079 11.7732 15.6906 10.8624 16.1973C10.8255 16.2171 10.7896 16.2383 10.7541 16.2599C9.85753 16.7995 8.91584 16.2531 8.93979 15.2045L8.93979 15.2045C8.94993 14.7802 8.84719 14.3476 8.61915 13.9532C7.95849 12.8125 6.49849 12.4236 5.35778 13.0838C4.21475 13.744 3.82591 15.204 4.48611 16.3447C5.14677 17.4855 6.60676 17.8743 7.74748 17.2141C7.76222 17.2054 7.7765 17.1961 7.79125 17.1874L7.78986 17.1892C8.68871 16.6437 9.63455 17.1906 9.61013 18.2415L9.61105 18.2401C9.61105 18.2594 9.60967 18.2793 9.60967 18.2986C9.61105 19.6167 10.6804 20.6842 11.9984 20.6828C13.3165 20.6814 14.384 19.6121 14.3826 18.294C14.3826 18.2765 14.3817 18.259 14.3813 18.2415L14.3822 18.2429C14.3582 17.1892 15.3068 16.6419 16.2075 17.1892L16.2061 17.1869C16.2227 17.197 16.2383 17.2072 16.2549 17.2168C17.397 17.8752 18.8561 17.4832 19.5145 16.3411C20.1728 15.199 19.7808 13.7398 18.6387 13.0815L18.6396 13.0811Z" fill="#000000" fill-rule="nonzero" opacity="1" stroke="none"/>
</svg>

<svg xmlns="http://www.w3.org/2000/svg" xml:space="preserve" width="24" height="24" viewBox="0 0 24 24" stroke-miterlimit="10"><path d="M9.614 5.704a2.386 2.386 0 1 1 4.773 0 2.386 2.386 0 0 1-4.773 0"/><path d="M18.64 13.081a2.386 2.386 0 0 0-3.579 2.122c.024 1.051-.922 1.599-1.82 1.056l-.11-.063c-.91-.508-.909-1.589.001-2.096a2.39 2.39 0 0 0 1.252-2.1l-.002-.054.001.001c-.023-1.053.925-1.6 1.825-1.052a2.386 2.386 0 0 0 3.307-3.234 2.387 2.387 0 0 0-4.453 1.247c.024 1.051-.921 1.598-1.82 1.056a2.37 2.37 0 0 0-1.244-.35c-.456 0-.882.128-1.244.35-.896.54-1.839-.006-1.815-1.055a2.387 2.387 0 1 0-1.146 1.986c.898-.545 1.843 0 1.82 1.051v-.001L9.612 12c0 .907.506 1.696 1.251 2.1.91.507.91 1.59 0 2.096l-.109.063c-.896.54-1.838-.007-1.814-1.056a2.387 2.387 0 1 0-1.192 2.01l.043-.027-.001.002c.899-.545 1.845.002 1.82 1.052h.001l-.001.058a2.386 2.386 0 1 0 4.773-.005l-.002-.053.001.002c-.024-1.054.925-1.601 1.826-1.054l-.002-.002.049.03a2.386 2.386 0 1 0 2.384-4.135"/></svg>
